svgs/sharp-regular/garage-car.svg

<svg xmlns="http://www.w3.org/2000/svg" viewBox="0 0 640 512"><!--! Font Awesome Pro 6.6.0 by @fontawesome - https://fontawesome.com License - https://fontawesome.com/license (Commercial License) Copyright 2024 Fonticons, Inc. --><path d="M320 6.1l9 3.7 296 120 15 6.1 0 16.2 0 336 0 24-48 0 0-24 0-319.8L320 57.9 48 168.2 48 488l0 24L0 512l0-24L0 152l0-16.2 15-6.1L311 9.8l9-3.7zM96 192l24 0 400 0 24 0 0 24 0 272 0 24-48 0 0-24 0-248-352 0 0 248 0 24-48 0 0-24 0-272 0-24zm159.1 80L384 272l18.1 0 5 17.4 16 56L425 352l7 0 24 0 0 24 0 112 0 24-48 0 0-24 0-8-176 0 0 8 0 24-48 0 0-24 0-112 0-24 24 0 7.1 0 1.7-6.3 15.1-56 4.8-17.7 18.4 0zM408 400l-176 0 0 32 176 0 0-32zm-33-48l-9.1-32-92.4 0-8.6 32L375 352z"/></svg>

<svg xmlns="http://www.w3.org/2000/svg" viewBox="0 0 640 512"><!--! Font Awesome Pro 6.4.2 by @fontawesome - https://fontawesome.com License - https://fontawesome.com/license (Commercial License) Copyright 2023 Fonticons, Inc. --><path d="M320 6.1l9 3.7 296 120 15 6.1V152 488v24H592V488 168.2L320 57.9 48 168.2V488v24H0V488 152 135.8l15-6.1L311 9.8l9-3.7zM96 192h24H520h24v24V488v24H496V488 240H144V488v24H96V488 216 192zm159.1 80H384h18.1l5 17.4 16 56L425 352h7 24v24V488v24H408V488v-8H232v8 24H184V488 376 352h24 7.1l1.7-6.3 15.1-56 4.8-17.7h18.4zM408 400H232v32H408V400zm-33-48l-9.1-32H273.5l-8.6 32H375z"/></svg>
